X: 174
P: Longways for as many as will
M: C|
L: 1/8
K: D
[|\
f3g a2(gf) | g3f e2(dc) | f3g a2(gf) | g4 e4 |\
f3g a2(gf) | g3f e2(dc) | A2d2 d2(cB) | f4 d4 |]

